icons/d3-dark.svg

<svg width="256" height="256" viewBox="0 0 256 256" fill="none" xmlns="http://www.w3.org/2000/svg">
<rect width="256" height="256" rx="60" fill="#282828"/>
<path d="M136.747 127.656C136.747 85.8737 102.8 52 60.9133 52H48V85.2556H60.92C84.3936 85.2556 103.42 104.238 103.42 127.656C103.42 151.075 84.3936 170.057 60.92 170.057H48V203.313H60.92C102.794 203.313 136.747 169.439 136.747 127.656ZM208 98.1451C208 72.6586 187.286 52 161.747 52H108.413C121.537 60.2001 132.301 71.6593 139.653 85.2556H161.747C168.874 85.2556 174.667 91.0283 174.667 98.1451C174.667 105.262 168.874 111.035 161.747 111.035H148.827C150.913 122.023 150.913 133.303 148.827 144.29H161.747C168.867 144.29 174.667 150.057 174.667 157.181C174.667 164.304 168.874 170.07 161.747 170.07H139.653C132.301 183.666 121.537 195.126 108.413 203.325H161.747C172.554 203.325 183.02 199.548 191.333 192.651C210.954 176.355 213.64 147.263 197.3 127.67C204.212 119.376 207.997 108.931 208 98.1451Z" fill="#F9A03C"/>
</svg>

<svg xmlns="http://www.w3.org/2000/svg" width="256" height="256" fill="none"><rect width="256" height="256" fill="#282828" rx="60"/><path fill="#F9A03C" d="M136.747 127.656C136.747 85.874 102.8 52 60.913 52H48v33.256h12.92c23.474 0 42.5 18.982 42.5 42.4 0 23.419-19.026 42.401-42.5 42.401H48v33.256h12.92c41.874 0 75.827-33.874 75.827-75.657M208 98.146C208 72.658 187.286 52 161.747 52h-53.334a89.3 89.3 0 0 1 31.24 33.256h22.094c7.127 0 12.92 5.772 12.92 12.89 0 7.116-5.793 12.889-12.92 12.889h-12.92a89.1 89.1 0 0 1 0 33.255h12.92c7.12 0 12.92 5.767 12.92 12.891s-5.793 12.889-12.92 12.889h-22.094a89.3 89.3 0 0 1-31.24 33.255h53.334a46.34 46.34 0 0 0 29.586-10.674c19.621-16.296 22.307-45.388 5.967-64.981A46.14 46.14 0 0 0 208 98.145"/></svg>
